Reedweeks/img/Buy.svg

<svg width="24" height="24" viewBox="0 0 24 24" fill="none" xmlns="http://www.w3.org/2000/svg">
<path fill-rule="evenodd" clip-rule="evenodd" d="M7.42245 19.8203C7.84445 19.8203 8.18745 20.1633 8.18745 20.5853C8.18745 21.0073 7.84445 21.3493 7.42245 21.3493C7.00045 21.3493 6.65845 21.0073 6.65845 20.5853C6.65845 20.1633 7.00045 19.8203 7.42245 19.8203Z" stroke="#3B3943" stroke-width="1.5" stroke-linecap="round" stroke-linejoin="round"/>
<path fill-rule="evenodd" clip-rule="evenodd" d="M18.6749 19.8203C19.0969 19.8203 19.4399 20.1633 19.4399 20.5853C19.4399 21.0073 19.0969 21.3493 18.6749 21.3493C18.2529 21.3493 17.9099 21.0073 17.9099 20.5853C17.9099 20.1633 18.2529 19.8203 18.6749 19.8203Z" stroke="#3B3943" stroke-width="1.5" stroke-linecap="round" stroke-linejoin="round"/>
<path d="M2.75 3.25L4.83 3.61L5.793 15.083C5.871 16.018 6.652 16.736 7.59 16.736H18.502C19.398 16.736 20.158 16.078 20.287 15.19L21.236 8.632C21.353 7.823 20.726 7.099 19.909 7.099H5.164" stroke="#3B3943" stroke-width="1.5" stroke-linecap="round" stroke-linejoin="round"/>
<path d="M14.1255 10.7949H16.8985" stroke="#3B3943" stroke-width="1.5" stroke-linecap="round" stroke-linejoin="round"/>
</svg>

<svg width="24" height="24" fill="none" xmlns="http://www.w3.org/2000/svg"><path clip-rule="evenodd" d="M7.422 19.82a.766.766 0 0 1 0 1.53.764.764 0 1 1 0-1.53ZM18.675 19.82a.766.766 0 1 1-.001 1.532.766.766 0 0 1 0-1.532Z" stroke="#3B3943" stroke-width="1.5" stroke-linecap="round" stroke-linejoin="round"/><path d="m2.75 3.25 2.08.36.963 11.473a1.802 1.802 0 0 0 1.797 1.653h10.912c.896 0 1.656-.658 1.785-1.546l.949-6.558a1.34 1.34 0 0 0-1.327-1.533H5.164M14.126 10.795h2.772" stroke="#3B3943" stroke-width="1.5" stroke-linecap="round" stroke-linejoin="round"/></svg>
